X: 1172
T: Come Up Stairs with Me.
C:Carey.
B:O'Neill's Music of Ireland
N:O'Neill's - 1172
Z:Transcribed by Stephen Foy (shf@access.digex.net)
Z:abc 1.6
M:9/8
R:slipjig
K:G
D | G2 c BAG Bcd | ecA ABG FED | G2 c BAG Bcd | efg faf g2 :|
g | fed d2 g fed | ecA ABG FED | fed d2 g fed | efg faf g2 g |
fed d2 g fed | ecA ABG FED | G2 c BAG Bcd | efg faf g2 ||


